X:35
T:Carty's Reel 
B:CRE2.294 (RÃÂÃÂÃÂÃÂ­l an ChÃÂÃÂÃÂÃÂ¡rthaigh)
F:file ID: cre.2/035cartys
S:Micko Russell (Clare)
L:1/8
M:C
R:reel % A-B-A
Q:180
K:Em
d|:BEEE G2GA|BEEE Bede|Bee^c d2dB|ABAF DEFD|
BEEE G2GA|Bee2 Bede|Bee^c d2dB|ABAF DEFD:|
|B2BA G2GA|BAAA Bdgd|BcBA G2FG|ADED ADed|
B2BA G2G2|B2BA Bdg2|gbag g2ge|1 dedB (3ABA GA:|\
[2 dedB (3ABA FA||

%%%

